!!!COM: Bach, Johann Sebastian
!!!CDT: 1685/3//-1750/7/28/
!!!OTL@@DE: Nun lob', mein' Seel', den Herren
!!!AGN: 4-Part Chorale
!!!SCT: BH 268
!!!SCT: BWV 389
**harm	**root	**kern	**kern	**kern	**kern
!	!	!bass	!tenor	!alto	!soprno
*	*Iorgan	*Iorgan	*Iorgan	*Iorgan	*Iorgan
*M4/4	*M4/4	*M4/4	*M4/4	*M4/4	*M4/4
*met(c)	*met(c)	*met(c)	*met(c)	*met(c)	*met(c)
*MM60	*MM60	*MM60	*MM60	*MM60	*MM60
*k[f#c#]	*k[f#c#]	*k[f#c#]	*k[f#c#]	*k[f#c#]	*k[f#c#]
*D:	*D:	*D:	*D:	*D:	*D:
*>[A,A,B]	*>[A,A,B]	*>[A,A,B]	*>[A,A,B]	*>[A,A,B]	*>[A,A,B]
*>A	*>A	*>A	*>A	*>A	*>A
I	4CC	8d	4f#	4a	4dd
.	.	8c#	.	.	.
=1	=1	=1	=1	=1	=1
vi	4AA	4B	4f#	4b	4dd
iii	4EE	4F#	8f#	4a	4cc#
.	.	.	8e	.	.
IV	4FF	4G	4d	8a	4b
.	.	.	.	8g	.
I	4CC	8D	4d	8f#	4a
.	.	8E	.	8g	.
=2	=2	=2	=2	=2	=2
Ib	4CC	4F#	4.d	4a	4dd
ii7b	8DD	8G	.	8b	4ee
V	8GG	8A	8c#	8a	.
I;	4CC;	4D;	4d;	4a;	4ff#;
I	4CC	4D	8d	4a	4ff#
.	.	.	8e	.	.
=3	=3	=3	=3	=3	=3
I	8CC	4d	8f#	8a	8ff#
ii7d	8DD	.	8g	8b	8ee
Vb/vi	4EE	4A#	8f#	4cc#	4ff#
.	.	.	8e	.	.
vi	4AA	8B	4.d	4.b	4ff#
.	.	8A	.	.	.
ii7b	8DD	8G	.	.	4ee
V	8GG	8A	8c#	8a	.
=4	=4	=4	=4	=4	=4
Ib	8CC	8F#	4d	8a	8dd
ii7b	8DD	8G	.	8b	8ee
V	4GG	4A	4c#	8a	4eeT
.	.	.	.	8g	.
I;	4CC;	4D;	4A;	4f#;	4dd;
=:|!	=:|!	=:|!	=:|!	=:|!	=:|!
*>B	*>B	*>B	*>B	*>B	*>B
I	4CC	4D	4A	4f#	4dd
=5	=5	=5	=5	=5	=5
IV	4FF	4G	4B	4g	8dd
.	.	.	.	.	8ee
Ib	4CC	8F#	8A	4dd	4ff#
.	.	8G	8B	.	.
V	4GG	4A	4c#	8a	4ee
.	.	.	.	8g	.
Vb/vi	4EE	4A#	4c#	4f#	4ff#
=6	=6	=6	=6	=6	=6
vi	4AA	4B	8c#	2f#	4dd
.	.	.	4B	.	.
V/vi	4EE	4F#	.	.	4cc#
.	.	.	8A#	.	.
vi;	4AA;	4BB;	4d;	4f#;	4b;
vi	4AA	8B	8d	4f#	4b
.	.	8A	8c#	.	.
!!linebreak: 3
=7	=7	=7	=7	=7	=7
Vb/V	4DD	4G#	4B	4e	8ee
.	.	.	.	.	8dd
V	4GG	8A	4A	4e	4cc#
.	.	8G#	.	.	.
Ib	8CC	8F#	4A	8a	8dd
I7	8CC	8D	.	8f#	8cc#
V/V	4DD	4E	8e	4g#	4b
.	.	.	8d	.	.
=8	=8	=8	=8	=8	=8
V;	4GG;	4AA;	4c#;	4e;	4a;
V	4GG	8A	8c#	4e	4a
.	.	8G	8B	.	.
Ib	4CC	4F#	4A	8a	4dd
.	.	.	.	8g	.
vi	4AA	8B	4d	4f#	4dd
.	.	8A	.	.	.
=9	=9	=9	=9	=9	=9
ii7b	4DD	8G	4d	8b	4ee
.	.	8E	.	8g	.
V	4GG	4A	4c#	4a	4ee
I	4CC	4.D	4d	8a	8ff#
.	.	.	.	8g	8ee
V7/IV	4CC	.	4c	4a	4ff#
.	.	16E	.	.	.
.	.	16F#	.	.	.
=10	=10	=10	=10	=10	=10
IV;	4FF;	4G;	4B;	4g;	4dd;
I	4CC	4F#	4d	4a	4dd
ii	4DD	4E	8e	8g	4gg
.	.	.	8f#	8a	.
ii	4DD	4e	4g	4b	4gg
=11	=11	=11	=11	=11	=11
iv/ii	4GG	8A	4a	4cc	8ff#
.	.	8c	.	.	8ee
V/ii	4AA	4B	4d#	4f#	4ff#
ii;	4DD;	4E;	4B;	4g;	4ee;
V	4GG	4A	4c#	4a	4ee
=12	=12	=12	=12	=12	=12
I	4CC	8d	4d	4a	4ff#
.	.	8c#	.	.	.
vi	4AA	8B	4d	4b	4ff#
.	.	8A	.	.	.
iib	4DD	8G	4e	4b	4gg
.	.	8F#	.	.	.
IVb/IV	4BB-	4E	4e	4cc	4gg
!!linebreak: 3
=13	=13	=13	=13	=13	=13
V7/IV	4CC	4D	8f#	4cc	8aa
.	.	.	8e	.	16gg
.	.	.	.	.	16ff#
vi7/IV	8DD	8E	8d	8b	8gg
viio/IV	8EE	8F#	8c	8a	8aa
IV;	4FF;	4G;	4B;	4g;	4dd;
I	4CC	4d	8d	4a	4ff#
.	.	.	8c#	.	.
=14	=14	=14	=14	=14	=14
Vb/V	4DD	4G#	4B	4b	8ee
.	.	.	.	.	8dd
V	4GG	4A	4e	4a	4cc#
Ib	8CC	8F#	4A	8a	8dd
I7	8CC	8D	.	8f#	8cc#
V/V	4DD	4E	8e	4g#	4b
.	.	.	8d	.	.
=15	=15	=15	=15	=15	=15
V;	4GG;	4AA;	4c#;	4e;	4a;
V	4GG	4AA	4c#	4e	4a
vi	4AA	4BB	8F#	4b	4dd
.	.	.	8G#	.	.
Vb	4GG	8C#	4A	8e	4cc#
.	.	8D	.	8f#	.
=16	=16	=16	=16	=16	=16
ii	4DD	4E	4e	4g	4b
Ib	4CC	4F#	8e	4a	4a
.	.	.	8d	.	.
viio7c	4BB	4G	8d	4.b	4ee
.	.	.	8c#	.	.
viio7/V	4FF#	4G#	4d	.	4ff#
.	.	.	.	16cc#	.
.	.	.	.	16dd	.
=17	=17	=17	=17	=17	=17
V;	4GG;	4A;	4c#;	4a;	4ee;
Vb/vi	4EE	4A#	8f#	4cc#	4ff#
.	.	.	8e	.	.
vi	4AA	8B	8d	4b	4gg
.	.	8c#	8e	.	.
I	8CC	4d	8f#	8a	4ff#
IV7c	8FF	.	8g	8b	.
=18	=18	=18	=18	=18	=18
V7d	8GG	8G	8a	4cc#	4ee
V7	8GG	8A	8g	.	.
vi	4AA	4B	8f#	2dd	8dd
.	.	.	8g	.	8ee
Ic	4CC	8A	4.a	.	4ff#
.	.	8G	.	.	.
V	4GG	4A	.	4cc#	4ee
.	.	.	8g	.	.
=19	=19	=19	=19	=19	=19
I;	2.CC;	2.D;	2.f#;	2.a;	2.dd;
==	==	==	==	==	==
*-	*-	*-	*-	*-	*-
!!chor2scor: -l 3 -s 0.6 -o %b.pmx
!!!YEC: Copyright 1994, David Huron
!!!YEC: Changes/Additions 2001 by Craig Stuart Sapp
!!!YEN: United States of America
!!!SMA: 371 Bach Chorales, edited by Ludwig Erk, C.F. Peters
!!!PDT: 1850, 1865
!!!ONB: Harmony and Root analysis done manually
